svgs/sharp-solid/square-4.svg

<svg xmlns="http://www.w3.org/2000/svg" viewBox="0 0 448 512"><!--! Font Awesome Pro 6.5.2 by @fontawesome - https://fontawesome.com License - https://fontawesome.com/license (Commercial License) Copyright 2024 Fonticons, Inc. --><path d="M0 32H448V480H0V32zM288 192H240v24 56H175.6l40-144H165.8L120.9 289.6 112.4 320H144h96v40 24h48V360 320h8 24V272H296h-8V216 192z"/></svg>

<svg xmlns="http://www.w3.org/2000/svg" viewBox="0 0 448 512"><!--! Font Awesome Pro 6.6.0 by @fontawesome - https://fontawesome.com License - https://fontawesome.com/license (Commercial License) Copyright 2024 Fonticons, Inc. --><path d="M0 32l448 0 0 448L0 480 0 32zM288 192l-48 0 0 24 0 56-64.4 0 40-144-49.8 0L120.9 289.6 112.4 320l31.6 0 96 0 0 40 0 24 48 0 0-24 0-40 8 0 24 0 0-48-24 0-8 0 0-56 0-24z"/></svg>
